X:1
T:Embden
T:D minor              Hezekiah Moors, 1809
T:Transcribed from Province Harmony, 1809.
T:Isaac Watts, 1709 (Hymn 142, Book 2)                   66. 86. (S. M.)
%%score [ 1 2 3 ]
L:1/8
Q:1/4=120
M:3/2
K:F
V:1 treble nm="Tr." snm="Tr."
V:2 treble-8 nm="T." snm="T."
V:3 bass nm="B." snm="B."
V:1
"_1. Not  all  the   blood   of  beasts On  Jewish    altars    slain  Could give the  guilty  conscience   peace.  Or   wash  a   –  way  the stain.\n2. But Christ, the heavenly Lamb, Takes  all  our  sins  away;  A  sac – ri – fice  of     no   –  bler   name   And   richer  blood  than  they." d4 | %1
 A8 ^c4 | (d4 =B4) ^G4 | A8 A4 | (A4 d4) A4 | B8 A4 | A8 A4 | A8 G4 | (F4 B4) A4 | %9
 (A4 d4) (^c2 =B2) | A8 A4 | A8 B4 | A8 A4 | A8 |] %14
V:2
"_3. My faith would lay her hand  On that dear head of thine,  While,  like  a        pe–ni–tent,  I       stand,  And  there  con–fess  my  sin.\n4. My soul  looks  back  to see  The burdens thou didst bear   When  hang – ing  on   the  cur–sed  tree,   And hopes her guilt was there." A4 | %1
 F8 E4 | (D4 G4) B4 | A8 A4 | F8 A4 | (G4 F4) E4 | D8 A4 | F8 G4 | (A4 d4) ^c4 | (d4 A4) ^G4 | %10
 A8 ^c4 | (A4 f4) (e2 d2) | ^c8 c4 | d8 |] %14
V:3
"___________________________________\nEdited by B. C. Johnston, 2018\n   Measure 3, Tenor: the natural mark removed from third note.""_5. Be – lie – ving,  we     re – joice  To  see  the curse remove;  We  bless  the  Lamb  with  cheerful  voice,  And  sing  his  bleeding  love." D,4 | %1
 D,8 A,,4 | (D,4 E,4) E,4 | A,,8 D,4 | D,8 D,4 | G,,8 A,,4 | D,8 D,4 | D,8 E,4 | (F,4 G,4) A,4 | %9
 D,8 E,4 | A,,8 A,4 | F,8 G,4 | A,8 A,4 | D,8 |] %14

